X:34
T:Hornpipe. LIT.034
M:2/2
Q:1/4=160
L:1/8
N:More Scots Measure than Hornpipe
B:Wm. Litten MS, 1802
Z:Village Music Project 2017 Anne Wride
K:D
FE | D3F ABAF | A2d2d3A | B>cd>e d/e/fed | e2E2E3F |
D3F ABAF | A2d2d3A | Bcde faef | d2D2D2 :|
|: de | fedB ABdA | B2d2d3F | G3A AF dF | E2e2e2de |
fedf edce | dcBA BAGF | EFGE AGFE | D2d2d2 :|

